iu/1mb.svg

<svg xmlns="http://www.w3.org/2000/svg" viewBox="0 0 682 292" height="1em" width="1em">
  <path d="M284.5 124.058c.556 110.255.403 146.874.019 152.507-.698 10.243-.698 10.243-4.859 11.288-2.288.575-7.085 1.285-10.66 1.578-3.575.293-10.55.697-15.5.898-4.95.2-11.25.21-14 .021s-9.164-1.062-14.254-1.94c-7.993-1.379-9.322-1.89-9.751-3.753-.273-1.186-.609-36.389-.746-78.229-.249-76.072-.249-76.072-3.252-81.942-2.473-4.835-3.876-6.319-7.955-8.419-4.494-2.312-6.022-2.543-16.497-2.49-9.243.048-13.439.582-21.045 2.679-5.225 1.441-15.125 4.844-22 7.562-8.666 3.426-12.725 4.595-13.235 3.812-.404-.622-.741-3.729-.75-6.905-.008-3.176.84-8.207 1.884-11.179 1.045-2.972 3.564-7.911 5.598-10.975 2.033-3.064 5.708-7.807 8.165-10.54 2.457-2.732 7.475-7.226 11.152-9.985 3.678-2.76 9.161-6.339 12.186-7.956 3.025-1.616 8.918-4.085 13.095-5.487 4.177-1.402 11.715-3.015 16.75-3.585 6.182-.701 12.006-.715 17.935-.043 4.83.547 12.027 2.099 15.996 3.449 3.968 1.349 9.819 3.842 13.002 5.539 3.184 1.696 8.627 5.409 12.097 8.251 3.469 2.841 8.754 8.292 11.743 12.112 2.989 3.82 5.852 7.672 6.362 8.56.818 1.424 1.115 1.35 2.522-.624.877-1.231 3.936-4.938 6.797-8.236 2.86-3.299 8.326-8.469 12.146-11.489 3.819-3.02 10.119-7.046 14-8.947 3.88-1.901 9.98-4.373 13.555-5.495 3.575-1.121 10.403-2.51 15.173-3.086 6.016-.725 11.481-.728 17.841-.007 5.043.571 11.94 1.968 15.327 3.105 3.388 1.136 9.091 3.602 12.674 5.48 3.583 1.877 9.309 5.675 12.725 8.438 3.415 2.764 8.468 7.816 11.228 11.227 2.76 3.411 6.57 9.362 8.468 13.225 1.898 3.863 4.163 9.948 5.034 13.523 1.187 4.874 1.837 16.131 2.597 45 .557 21.175.756 55.6.441 76.5-.314 20.9-.814 40.783-1.112 44.185-.541 6.184-.541 6.184-5.219 7.277-2.572.601-12.172 1.371-21.333 1.709-12.964.48-19.281.24-28.5-1.079-6.514-.933-12.393-2.238-13.064-2.9-.935-.922-1.286-19.347-1.5-78.698-.28-77.494-.28-77.494-2.992-83.282-2.45-5.229-3.271-6.045-8.5-8.449-5.04-2.317-7.081-2.661-15.788-2.664-6.282-.002-12.788.675-17.5 1.821-4.125 1.003-11.775 3.357-17 5.231l-9.5 3.407ZM.5 85.642C78.728 54.145 101.791 45 102.22 45c.429 0 .782 45.337.784 100.75.003 96.805.077 100.871 1.881 103.83 1.033 1.694 3.169 3.572 4.747 4.174 1.577.602 5.842 2.044 9.476 3.204 3.634 1.161 7.523 3.108 8.642 4.326 1.119 1.219 2.32 3.574 2.671 5.234.35 1.66.33 6.307-.043 10.326-.56 6.026-1.07 7.564-2.91 8.769-1.367.896-7.984 2.019-17.099 2.904-9.676.938-25.695 1.409-45.869 1.348-17.502-.054-36.803-.67-44.327-1.415-8.671-.859-14.188-1.885-15.794-2.937-1.358-.89-2.936-2.832-3.508-4.315-.572-1.484-.878-6.009-.68-10.056.315-6.452.679-7.633 2.961-9.596 1.431-1.231 7.045-3.768 12.475-5.637 5.463-1.881 11.213-4.592 12.873-6.071 3-2.673 3-2.673 3.272-65.382.253-58.318.148-62.962-1.5-66.332-1.135-2.322-3.179-4.311-5.689-5.536-2.444-1.193-7.14-2.133-12.49-2.5-8.285-.568-8.624-.689-10.082-3.588-1.009-2.005-1.51-5.962-1.51-11.929L.5 85.642Zm525.758 172.255c-10.612 12.724-16.615 18.828-20.185 21.773-3.57 2.945-8.489 6.321-10.931 7.503-2.441 1.182-6.51 2.295-9.04 2.474-2.531.179-6.551-.307-8.933-1.079-2.382-.773-5.257-2.229-6.388-3.236-1.131-1.008-2.782-3.407-3.669-5.332-1.437-3.12-1.67-14.408-2.144-104-.496-93.618-.657-100.877-2.35-106-1-3.025-4.131-8.875-6.959-13-2.827-4.125-6.382-9.926-7.9-12.891-1.837-3.589-2.758-6.931-2.755-10 .002-2.749.764-5.856 1.888-7.699 1.036-1.699 3.397-4.281 5.246-5.738 1.849-1.457 8.762-4.424 15.362-6.593 6.6-2.169 17.4-5.587 24-7.595 6.6-2.009 13.307-4.289 14.904-5.068C508.001.637 511.896 0 515.059 0c4.046 0 7.005.667 9.978 2.25 2.325 1.237 5.663 3.926 7.419 5.975 1.756 2.049 3.811 5.424 4.566 7.5 1.056 2.906 1.454 13.318 1.727 45.244.195 22.808.558 41.672.807 41.92.249.249 1.463-.457 2.698-1.568 1.235-1.112 4.946-3.642 8.246-5.623 3.3-1.981 9.393-4.728 13.539-6.104 4.146-1.376 11.61-2.997 16.586-3.602 6.387-.776 11.961-.797 18.961-.07 5.453.567 12.573 1.729 15.823 2.583 3.251.854 8.884 2.802 12.519 4.33 3.636 1.527 9.526 4.746 13.091 7.154 3.565 2.407 9.118 7.057 12.342 10.332 3.223 3.276 8.011 9.251 10.639 13.277 2.629 4.027 6.144 10.602 7.813 14.612 1.668 4.009 3.961 10.837 5.095 15.173 1.135 4.336 2.52 11.524 3.077 15.974.558 4.45 1.015 12.682 1.015 18.294 0 5.613-.48 13.724-1.066 18.027-.586 4.302-1.92 11.208-2.963 15.346-1.044 4.139-3.202 10.664-4.796 14.5-1.593 3.837-4.5 9.676-6.458 12.976-1.959 3.3-5.605 8.379-8.102 11.288-2.497 2.908-6.919 7.33-9.827 9.827-2.909 2.498-7.785 6.014-10.838 7.814-3.052 1.801-8.522 4.463-12.155 5.916-3.633 1.453-9.824 3.32-13.759 4.147-3.935.828-10.84 1.782-15.345 2.119-5.61.421-11.134.101-17.53-1.014-5.136-.895-12.561-2.882-16.5-4.414-3.938-1.533-9.861-4.513-13.161-6.623-3.3-2.11-9.654-7.397-14.121-11.749l-8.121-7.914Zm42.31-8.983c2.788.047 7.375-.599 10.194-1.436 3.467-1.03 6.915-3.158 10.657-6.578 3.519-3.216 6.655-7.336 8.615-11.319 1.696-3.444 3.992-9.596 5.103-13.671 1.471-5.397 2.171-11.892 2.578-23.91.437-12.912.197-18.54-1.103-25.88-.914-5.159-3.083-12.809-4.82-17-2.432-5.87-4.551-9.011-9.225-13.675-4.815-4.806-7.28-6.432-11.943-7.883-4.365-1.358-7.53-1.673-12.305-1.227-4.231.395-8.156 1.54-11.479 3.349-2.778 1.512-6.798 4.733-8.932 7.158-2.135 2.426-5.041 6.86-6.457 9.854-1.417 2.994-3.56 9.256-4.763 13.914-1.865 7.219-2.188 11.191-2.188 26.903 0 15.723.322 19.678 2.191 26.901 1.204 4.658 3.436 11.014 4.96 14.126 1.523 3.111 4.53 7.656 6.681 10.1s5.769 5.393 8.04 6.553c2.27 1.16 5.253 2.452 6.628 2.872 1.375.42 4.781.802 7.568.849Z" fill="#fff"/>
</svg>

<svg xmlns="http://www.w3.org/2000/svg" viewBox="0 0 682 292" version="1.1" height="1em" width="1em">
  <path d="M284.5 124.058 C285.056 234.313 284.903 270.932 284.519 276.565 283.821 286.808 283.821 286.808 279.66 287.853 277.372 288.428 272.575 289.138 269 289.431 265.425 289.724 258.45 290.128 253.5 290.329 248.55 290.529 242.25 290.539 239.5 290.35 236.75 290.161 230.336 289.288 225.246 288.41 217.253 287.031 215.924 286.52 215.495 284.657 215.222 283.471 214.886 248.268 214.749 206.428 214.5 130.356 214.5 130.356 211.497 124.486 209.024 119.651 207.621 118.167 203.542 116.067 199.048 113.755 197.52 113.524 187.045 113.577 177.802 113.625 173.606 114.159 166 116.256 160.775 117.697 150.875 121.1 144 123.818 135.334 127.244 131.275 128.413 130.765 127.63 130.361 127.008 130.024 123.901 130.015 120.725 130.007 117.549 130.855 112.518 131.899 109.546 132.944 106.574 135.463 101.635 137.497 98.571 139.53 95.507 143.205 90.764 145.662 88.031 148.119 85.299 153.137 80.805 156.814 78.046 160.492 75.286 165.975 71.707 169 70.09 172.025 68.474 177.918 66.005 182.095 64.603 186.272 63.201 193.81 61.588 198.845 61.018 205.027 60.317 210.851 60.303 216.78 60.975 221.61 61.522 228.807 63.074 232.776 64.424 236.744 65.773 242.595 68.266 245.778 69.963 248.962 71.659 254.405 75.372 257.875 78.214 261.344 81.055 266.629 86.506 269.618 90.326 272.607 94.146 275.47 97.998 275.98 98.886 276.798 100.31 277.095 100.236 278.502 98.262 279.379 97.031 282.438 93.324 285.299 90.026 288.159 86.727 293.625 81.557 297.445 78.537 301.264 75.517 307.564 71.491 311.445 69.59 315.325 67.689 321.425 65.217 325 64.095 328.575 62.974 335.403 61.585 340.173 61.009 346.189 60.284 351.654 60.281 358.014 61.002 363.057 61.573 369.954 62.97 373.341 64.107 376.729 65.243 382.432 67.709 386.015 69.587 389.598 71.464 395.324 75.262 398.74 78.025 402.155 80.789 407.208 85.841 409.968 89.252 412.728 92.663 416.538 98.614 418.436 102.477 420.334 106.34 422.599 112.425 423.47 116 424.657 120.874 425.307 132.131 426.067 161 426.624 182.175 426.823 216.6 426.508 237.5 426.194 258.4 425.694 278.283 425.396 281.685 424.855 287.869 424.855 287.869 420.177 288.962 417.605 289.563 408.005 290.333 398.844 290.671 385.88 291.151 379.563 290.911 370.344 289.592 363.83 288.659 357.951 287.354 357.28 286.692 356.345 285.77 355.994 267.345 355.78 207.994 355.5 130.5 355.5 130.5 352.788 124.712 350.338 119.483 349.517 118.667 344.288 116.263 339.248 113.946 337.207 113.602 328.5 113.599 322.218 113.597 315.712 114.274 311 115.42 306.875 116.423 299.225 118.777 294 120.651 L284.5 124.058 Z M0.5 85.642 C78.728 54.145 101.791 45 102.22 45 102.649 45 103.002 90.337 103.004 145.75 103.007 242.555 103.081 246.621 104.885 249.58 105.918 251.274 108.054 253.152 109.632 253.754 111.209 254.356 115.474 255.798 119.108 256.958 122.742 258.119 126.631 260.066 127.75 261.284 128.869 262.503 130.07 264.858 130.421 266.518 130.771 268.178 130.751 272.825 130.378 276.844 129.818 282.87 129.308 284.408 127.468 285.613 126.101 286.509 119.484 287.632 110.369 288.517 100.693 289.455 84.674 289.926 64.5 289.865 46.998 289.811 27.697 289.195 20.173 288.45 11.502 287.591 5.985 286.565 4.379 285.513 3.021 284.623 1.443 282.681 0.871 281.198 0.299 279.714 -0.007 275.189 0.191 271.142 0.506 264.69 0.87 263.509 3.152 261.546 4.583 260.315 10.197 257.778 15.627 255.909 21.09 254.028 26.84 251.317 28.5 249.838 31.5 247.165 31.5 247.165 31.772 184.456 32.025 126.138 31.92 121.494 30.272 118.124 29.137 115.802 27.093 113.813 24.583 112.588 22.139 111.395 17.443 110.455 12.093 110.088 3.808 109.52 3.469 109.399 2.011 106.5 1.002 104.495 0.501 100.538 0.501 94.571 L0.5 85.642 Z M526.258 257.897 C515.646 270.621 509.643 276.725 506.073 279.67 502.503 282.615 497.584 285.991 495.142 287.173 492.701 288.355 488.632 289.468 486.102 289.647 483.571 289.826 479.551 289.34 477.169 288.568 474.787 287.795 471.912 286.339 470.781 285.332 469.65 284.324 467.999 281.925 467.112 280 465.675 276.88 465.442 265.592 464.968 176 464.472 82.382 464.311 75.123 462.618 70 461.618 66.975 458.487 61.125 455.659 57 452.832 52.875 449.277 47.074 447.759 44.109 445.922 40.52 445.001 37.178 445.004 34.109 445.006 31.36 445.768 28.253 446.892 26.41 447.928 24.711 450.289 22.129 452.138 20.672 453.987 19.215 460.9 16.248 467.5 14.079 474.1 11.91 484.9 8.492 491.5 6.484 498.1 4.475 504.807 2.195 506.404 1.416 508.001 0.637 511.896 0 515.059 0 519.105 0 522.064 0.667 525.037 2.25 527.362 3.487 530.7 6.176 532.456 8.225 534.212 10.274 536.267 13.649 537.022 15.725 538.078 18.631 538.476 29.043 538.749 60.969 538.944 83.777 539.307 102.641 539.556 102.889 539.805 103.138 541.019 102.432 542.254 101.321 543.489 100.209 547.2 97.679 550.5 95.698 553.8 93.717 559.893 90.97 564.039 89.594 568.185 88.218 575.649 86.597 580.625 85.992 587.012 85.216 592.586 85.195 599.586 85.922 605.039 86.489 612.159 87.651 615.409 88.505 618.66 89.359 624.293 91.307 627.928 92.835 631.564 94.362 637.454 97.581 641.019 99.989 644.584 102.396 650.137 107.046 653.361 110.321 656.584 113.597 661.372 119.572 664 123.598 666.629 127.625 670.144 134.2 671.813 138.21 673.481 142.219 675.774 149.047 676.908 153.383 678.043 157.719 679.428 164.907 679.985 169.357 680.543 173.807 681 182.039 681 187.651 681 193.264 680.52 201.375 679.934 205.678 679.348 209.98 678.014 216.886 676.971 221.024 675.927 225.163 673.769 231.688 672.175 235.524 670.582 239.361 667.675 245.2 665.717 248.5 663.758 251.8 660.112 256.879 657.615 259.788 655.118 262.696 650.696 267.118 647.788 269.615 644.879 272.113 640.003 275.629 636.95 277.429 633.898 279.23 628.428 281.892 624.795 283.345 621.162 284.798 614.971 286.665 611.036 287.492 607.101 288.32 600.196 289.274 595.691 289.611 590.081 290.032 584.557 289.712 578.161 288.597 573.025 287.702 565.6 285.715 561.661 284.183 557.723 282.65 551.8 279.67 548.5 277.56 545.2 275.45 538.846 270.163 534.379 265.811 L526.258 257.897 Z M568.568 248.914 C571.356 248.961 575.943 248.315 578.762 247.478 582.229 246.448 585.677 244.32 589.419 240.9 592.938 237.684 596.074 233.564 598.034 229.581 599.73 226.137 602.026 219.985 603.137 215.91 604.608 210.513 605.308 204.018 605.715 192 606.152 179.088 605.912 173.46 604.612 166.12 603.698 160.961 601.529 153.311 599.792 149.12 597.36 143.25 595.241 140.109 590.567 135.445 585.752 130.639 583.287 129.013 578.624 127.562 574.259 126.204 571.094 125.889 566.319 126.335 562.088 126.73 558.163 127.875 554.84 129.684 552.062 131.196 548.042 134.417 545.908 136.842 543.773 139.268 540.867 143.702 539.451 146.696 538.034 149.69 535.891 155.952 534.688 160.61 532.823 167.829 532.5 171.801 532.5 187.513 532.5 203.236 532.822 207.191 534.691 214.414 535.895 219.072 538.127 225.428 539.651 228.54 541.174 231.651 544.181 236.196 546.332 238.64 548.483 241.084 552.101 244.033 554.372 245.193 556.642 246.353 559.625 247.645 561 248.065 562.375 248.485 565.781 248.867 568.568 248.914 Z" fill="#ffffff" fill-opacity="1" stroke="none"/>
</svg>
